!!!Genre:	Zhok
!!!Mode:	Altered Dorian
!!!Listening/dance:	dance
!!!:	*B-:; *G:frey
!!!One_Mode:	no
**kern
*I"P1
*clefG2
*k[b-]
*G:frey
=29
4bn
4dd
4cc
=30
4.bn
8f
8gL
8a-XJ
=31
(8gL
8a-X)
(8g
8a-)
(8g
8a-J)
=32
4g
4r
4r
=33!|:
*>C
*k[b-e-a-]
4.bn
8g
8bL
8ddJ
=34
4.cc
8bn
8a-L
8gJ
=35
4.f
8c
8a-L
8gJ
=36
2.f
=37
4c
4f
8enL
8fJ
=38
4g
4a-
12ccL
12bn
12a-J
=39
2.g
=40
2.gg
=41:|!
(8gL
8a-J)
(8gL
8a-J)
(8gL
8a-J)
=42
4g
4r
4r
*>eM
==
*-
